raw/spot/spot-load-error.svg

<svg width="80" height="80" viewBox="0 0 80 80" fill="none" xmlns="http://www.w3.org/2000/svg">
<path fill-rule="evenodd" clip-rule="evenodd" d="M15 12H63C67.4183 12 71 15.5817 71 20V25.6008H70H8H7V20C7 15.5817 10.5817 12 15 12ZM7 28.0008V62C7 66.4183 10.5817 70 15 70H63C67.4183 70 71 66.4183 71 62V28.0008H70H8H7Z" fill="#E3E7F5"/>
<path d="M15.8 20.9984C16.7941 20.9984 17.6 20.1925 17.6 19.1984C17.6 18.2043 16.7941 17.3984 15.8 17.3984C14.8059 17.3984 14 18.2043 14 19.1984C14 20.1925 14.8059 20.9984 15.8 20.9984Z" fill="#D3D8EA"/>
<path d="M22.8 20.9984C23.7941 20.9984 24.6 20.1925 24.6 19.1984C24.6 18.2043 23.7941 17.3984 22.8 17.3984C21.8059 17.3984 21 18.2043 21 19.1984C21 20.1925 21.8059 20.9984 22.8 20.9984Z" fill="#D3D8EA"/>
<path d="M29.8 20.9984C30.7941 20.9984 31.6 20.1925 31.6 19.1984C31.6 18.2043 30.7941 17.3984 29.8 17.3984C28.8059 17.3984 28 18.2043 28 19.1984C28 20.1925 28.8059 20.9984 29.8 20.9984Z" fill="#D3D8EA"/>
<path d="M53 37H15C14.4477 37 14 37.4477 14 38V43.6C14 44.1523 14.4477 44.6 15 44.6H53C53.5523 44.6 54 44.1523 54 43.6V38C54 37.4477 53.5523 37 53 37Z" fill="#D3D8EA"/>
<path d="M41 52.6016H15C14.4477 52.6016 14 53.0493 14 53.6016V56.6016C14 57.1539 14.4477 57.6016 15 57.6016H41C41.5523 57.6016 42 57.1539 42 56.6016V53.6016C42 53.0493 41.5523 52.6016 41 52.6016Z" fill="#D3D8EA"/>
<path fill-rule="evenodd" clip-rule="evenodd" d="M73.6098 49.6618C74.1566 50.2085 74.1566 51.0949 73.6098 51.6417L59.0434 66.2081C58.4967 66.7548 57.6103 66.7548 57.0635 66.2081L55.7907 64.9353C55.244 64.3885 55.244 63.5021 55.7907 62.9554L70.3571 48.389C70.9039 47.8422 71.7903 47.8422 72.337 48.389L73.6098 49.6618Z" fill="#0066FF"/>
<path fill-rule="evenodd" clip-rule="evenodd" d="M72.3382 66.2114C71.7915 66.7581 70.9051 66.7581 70.3583 66.2114L55.7919 51.645C55.2452 51.0983 55.2452 50.2118 55.7919 49.6651L57.0647 48.3923C57.6115 47.8456 58.4979 47.8456 59.0446 48.3923L73.611 62.9587C74.1578 63.5054 74.1578 64.3919 73.611 64.9386L72.3382 66.2114Z" fill="#0066FF"/>
</svg>

<svg width="80" height="80" viewBox="0 0 80 80" fill="none" xmlns="http://www.w3.org/2000/svg"><path fill-rule="evenodd" clip-rule="evenodd" d="M15 12h48a8 8 0 0 1 8 8v5.6H7V20a8 8 0 0 1 8-8zM7 28v34a8 8 0 0 0 8 8h48a8 8 0 0 0 8-8V28H7z" fill="#E3E7F5"/><path d="M15.8 20.998a1.8 1.8 0 1 0 0-3.6 1.8 1.8 0 0 0 0 3.6zM22.8 20.998a1.8 1.8 0 1 0 0-3.6 1.8 1.8 0 0 0 0 3.6zM29.8 20.998a1.8 1.8 0 1 0 0-3.6 1.8 1.8 0 0 0 0 3.6zM53 37H15a1 1 0 0 0-1 1v5.6a1 1 0 0 0 1 1h38a1 1 0 0 0 1-1V38a1 1 0 0 0-1-1zM41 52.602H15a1 1 0 0 0-1 1v3a1 1 0 0 0 1 1h26a1 1 0 0 0 1-1v-3a1 1 0 0 0-1-1z" fill="#D3D8EA"/><path fill-rule="evenodd" clip-rule="evenodd" d="M73.61 49.662a1.4 1.4 0 0 1 0 1.98L59.043 66.208a1.4 1.4 0 0 1-1.98 0l-1.272-1.273a1.4 1.4 0 0 1 0-1.98L70.357 48.39a1.4 1.4 0 0 1 1.98 0l1.273 1.273z" fill="#06F"/><path fill-rule="evenodd" clip-rule="evenodd" d="M72.338 66.211a1.4 1.4 0 0 1-1.98 0L55.792 51.645a1.4 1.4 0 0 1 0-1.98l1.273-1.273a1.4 1.4 0 0 1 1.98 0L73.61 62.96a1.4 1.4 0 0 1 0 1.98l-1.273 1.272z" fill="#06F"/></svg>
